src/images/mobile-icons/flashlight-on.svg

<svg viewBox="0 0 512 512" xmlns="http://www.w3.org/2000/svg" xmlns:xlink="http://www.w3.org/1999/xlink">
  <title>flashlight-on</title>
  <path d="M192.000136,42.6666667 C180.217986,42.6666667 170.666667,52.2114716 170.666667,64.0096533 L170.666667,255.990347 C170.666667,267.777753 180.213536,277.333333 191.999977,277.333333 L234.666667,277.333333 L234.666667,469.333333 L373.252814,231.757081 C379.188321,221.581926 374.43897,213.333333 362.659441,213.333333 L298.666667,213.333333 L374.459571,61.7475239 C379.728605,51.2094575 374.453903,42.6666667 362.66653,42.6666667 L192.000136,42.6666667 Z" fill="#000" stroke="none" stroke-width="1" fill-rule="evenodd"></path>
</svg>

<svg viewBox="0 0 512 512" xmlns="http://www.w3.org/2000/svg" xmlns:xlink="http://www.w3.org/1999/xlink">
  <title>flashlight-on</title>
  <path d="M192 42.667c-11.782 0-21.333 9.544-21.333 21.343v191.98c0 11.788 9.547 21.343 21.333 21.343h42.667v192l138.586-237.576c5.935-10.175 1.186-18.424-10.594-18.424h-63.992L374.46 61.748c5.269-10.539-.006-19.081-11.793-19.081H192z" fill="#000" stroke="none" stroke-width="1" fill-rule="evenodd"></path>
</svg>
